usr/share/icons/biglinux-icons-material/symbolic/categories/applications-development-symbolic.svg

<svg width="16" height="16" version="1.1" xmlns="http://www.w3.org/2000/svg">
 <path d="m6.8809-0.033203c-1.5196 0.072725-3.2074 1.2188-4.7871 3.4238a0.50005 0.50005 0 0 0 0.63477 0.73633s1.0937-0.54233 2.0957-0.64453c0.501-0.051102 0.93915 0.014428 1.2188 0.21484 0.2796 0.20042 0.50195 0.55218 0.50195 1.3809v2.9219h-0.54492c-0.554 0-1 0.446-1 1v5c0 0.554 0.446 1 1 1h4c0.554 0 1-0.446 1-1v-5c0-0.554-0.446-1-1-1h-0.63672v-3.1133c0.0026119-0.12198 0.062487-0.46171 0.20117-0.69531 0.11413-0.19224 0.29027-0.27187 0.5332-0.3125l0.70508 0.63086a0.50005 0.50005 0 0 0 0.33398 0.12695h1.3633a0.50005 0.50005 0 0 0 0.5-0.5v-3.6367a0.50005 0.50005 0 0 0-0.5-0.5h-1.3633a0.50005 0.50005 0 0 0-0.28125 0.085938l-0.72656 0.49023c-0.1609-0.05454-0.42114-0.14816-0.96875-0.28906-0.69018-0.17759-1.5365-0.35586-2.2793-0.32031zm0.046875 0.99805c0.52992-0.02536 1.3382 0.12474 1.9844 0.29102 0.64618 0.16627 1.1348 0.33984 1.1348 0.33984a0.50005 0.50005 0 0 0 0.44727-0.058594l0.79492-0.53711h0.71094v2.6367h-0.67383l-0.7793-0.69727a0.50005 0.50005 0 0 0-0.33398-0.12695c-0.71794 0-1.2454 0.42511-1.5078 0.86719s-0.33532 0.88298-0.3418 1.1855a0.50005 0.50005 0 0 0 0 0.011719v3.123h-0.81836v-2.9219c0-1.0322-0.34529-1.7829-0.91797-2.1934-0.57268-0.41049-1.2689-0.46129-1.9043-0.39648-0.2806 0.028622-0.28107 0.10155-0.54102 0.16602 1.0301-0.99577 2.0202-1.6547 2.7461-1.6895zm-0.92773 8.0352h4v5h-4v-5z" fill="#dedede"/>
</svg>

<svg xmlns="http://www.w3.org/2000/svg" width="16" height="16"><path fill="#dedede" d="M6.88-.033C5.362.04 3.674 1.186 2.095 3.39a.5.5 0 0 0 .635.736s1.093-.542 2.095-.645c.501-.05.94.015 1.22.215.279.2.501.552.501 1.381V8H6c-.554 0-1 .446-1 1v5c0 .554.446 1 1 1h4c.554 0 1-.446 1-1V9c0-.554-.446-1-1-1h-.637V4.887c.003-.122.063-.462.202-.696.114-.192.29-.271.533-.312l.705.63a.5.5 0 0 0 .334.128H12.5a.5.5 0 0 0 .5-.5V.5a.5.5 0 0 0-.5-.5h-1.363a.5.5 0 0 0-.281.086l-.727.49C9.969.522 9.708.428 9.16.287 8.47.11 7.624-.069 6.881-.033zm.048.998c.53-.026 1.338.125 1.984.29.646.167 1.135.34 1.135.34a.5.5 0 0 0 .447-.058L11.29 1H12v2.637h-.674l-.779-.698a.5.5 0 0 0-.334-.127c-.718 0-1.245.426-1.508.868s-.335.883-.342 1.185a.5.5 0 0 0 0 .012V8h-.818V5.078c0-1.032-.345-1.783-.918-2.193-.573-.41-1.269-.462-1.904-.397-.28.029-.281.102-.541.166C5.212 1.658 6.202 1 6.928.964zM6 9h4v5H6V9z"/></svg>
